svgs/light/shop.svg

<svg xmlns="http://www.w3.org/2000/svg" viewBox="0 0 640 512"><!--! Font Awesome Pro 6.6.0 by @fontawesome - https://fontawesome.com License - https://fontawesome.com/license (Commercial License) Copyright 2024 Fonticons, Inc. --><path d="M0 185.8c0-6.4 1.6-12.7 4.7-18.3L82.4 25C90.8 9.6 106.9 0 124.5 0l391 0c17.6 0 33.7 9.6 42.1 25l77.7 142.4c3.1 5.6 4.7 11.9 4.7 18.3c0 21.1-17.1 38.2-38.2 38.2L576 224l0 272c0 8.8-7.2 16-16 16s-16-7.2-16-16l0-272L96 224l0 128 256 0 0-80 0-16 32 0 0 16 0 192c0 26.5-21.5 48-48 48l-224 0c-26.5 0-48-21.5-48-48l0-240-25.8 0C17.1 224 0 206.9 0 185.8zM80 192l480 0 41.8 0c3.4 0 6.2-2.8 6.2-6.2c0-1-.3-2.1-.8-3L529.6 40.3c-2.8-5.1-8.2-8.3-14-8.3l-391 0c-5.9 0-11.2 3.2-14 8.3L32.8 182.8c-.5 .9-.8 1.9-.8 3c0 3.4 2.8 6.2 6.2 6.2L80 192zM96 464c0 8.8 7.2 16 16 16l224 0c8.8 0 16-7.2 16-16l0-80L96 384l0 80z"/></svg>

<svg xmlns="http://www.w3.org/2000/svg" viewBox="0 0 640 512"><!--! Font Awesome Pro 6.4.0 by @fontawesome - https://fontawesome.com License - https://fontawesome.com/license (Commercial License) Copyright 2023 Fonticons, Inc. --><path d="M0 185.8c0-6.4 1.6-12.7 4.7-18.3L82.4 25C90.8 9.6 106.9 0 124.5 0h391c17.6 0 33.7 9.6 42.1 25l77.7 142.4c3.1 5.6 4.7 11.9 4.7 18.3c0 21.1-17.1 38.2-38.2 38.2H576V496c0 8.8-7.2 16-16 16s-16-7.2-16-16V224H96V352H352V272 256h32v16V464c0 26.5-21.5 48-48 48H112c-26.5 0-48-21.5-48-48V224H38.2C17.1 224 0 206.9 0 185.8zM80 192H560h41.8c3.4 0 6.2-2.8 6.2-6.2c0-1-.3-2.1-.8-3L529.6 40.3c-2.8-5.1-8.2-8.3-14-8.3h-391c-5.9 0-11.2 3.2-14 8.3L32.8 182.8c-.5 .9-.8 1.9-.8 3c0 3.4 2.8 6.2 6.2 6.2H80zM96 464c0 8.8 7.2 16 16 16H336c8.8 0 16-7.2 16-16V384H96v80z"/></svg>
